Obsidian-SemiLight/actions/16s/resizerow.svg

<svg viewBox="0 0 16 16" xmlns="http://www.w3.org/2000/svg"><path d="m8 2-2 2h1v2h2v-2h1zm-6 5v1h12v-1zm5 2v2h-1l2 2 2-2h-1v-2z" fill="#4d4d4d"/></svg>

<svg xmlns="http://www.w3.org/2000/svg" viewBox="0 0 16 16">
  <defs id="defs3051">
    <style type="text/css" id="current-color-scheme">
      .ColorScheme-Text {
        color:#4d4d4d;
      }
      </style>
  </defs>
 <path style="fill:currentColor;fill-opacity:1;stroke:none" 
     d="M 8 2 L 6 4 L 7 4 L 7 6 L 9 6 L 9 4 L 10 4 L 8 2 z M 2 7 L 2 8 L 14 8 L 14 7 L 2 7 z M 7 9 L 7 11 L 6 11 L 8 13 L 10 11 L 9 11 L 9 9 L 7 9 z "
     class="ColorScheme-Text"
     />
</svg>
